packages/core/src/svgs/tokens/branded/LMWR.svg

<svg width="24" height="24" viewBox="0 0 24 24" fill="none" xmlns="http://www.w3.org/2000/svg">
<path d="M4.242 8.24823L4.30081 8.27177L5.43608 8.77764C6.12092 7.32198 7.29209 6.1508 8.74774 5.46596L8.48305 4.87186L8.10659 3.99541C7.67718 3.14249 6.90662 3.43072 6.63604 3.5719C5.41254 4.3307 4.40081 5.33067 3.642 6.48946L3.63613 6.53652C3.1479 7.6659 4.00082 8.13648 4.242 8.24823Z" fill="#00934B"/>
<path d="M5.44775 8.76584L6.41242 9.19523L7.25358 9.55991L7.91827 9.85994C8.33317 9.02115 9.01348 8.34291 9.85346 7.93056L9.55356 7.25999L9.18293 6.42472L8.75942 5.45416C7.30605 6.14226 6.13585 7.31246 5.44775 8.76584Z" fill="#22D511"/>
<path d="M7.90674 9.85993L10.5891 11.0363C10.7025 11.0251 10.808 10.9728 10.886 10.8895C10.9638 10.8061 11.0088 10.6974 11.0125 10.5834L10.4479 9.30695L9.84203 7.91879C9.00344 8.33881 8.32421 9.02011 7.90674 9.85993Z" fill="#BEF000"/>
<path d="M21.7714 9.94231C21.3244 8.82467 20.4067 9.07761 20.1538 9.17761L20.0832 9.20701L19.5186 9.4246L18.9126 9.65998C19.4715 11.2305 19.4421 12.8833 18.9126 14.3599L19.5186 14.5951L20.3009 14.8952C21.2067 15.2774 21.589 14.6304 21.7243 14.2892C22.0714 12.8833 22.0949 11.4069 21.7714 9.93641V9.94231Z" fill="#00934B"/>
<path d="M18.9238 9.66586L17.9415 10.0422L16.4062 10.6423C16.7122 11.5599 16.7004 12.5186 16.4062 13.3774L17.071 13.6422L17.9356 13.9775L18.912 14.3598C19.4473 12.8892 19.4827 11.2422 18.9238 9.66586Z" fill="#22D511"/>
<path d="M16.4125 10.6482L15.0007 11.1952L13.689 11.7129C13.6322 11.7779 13.5949 11.8577 13.5813 11.943C13.5678 12.0283 13.5787 12.1157 13.6126 12.1952C13.6362 12.2422 13.6597 12.2893 13.689 12.3246L15.0007 12.8305L16.4125 13.3774C16.7106 12.4901 16.7106 11.5296 16.4125 10.6423V10.6482Z" fill="#BEF000"/>
<path d="M4.4714 14.601L5.08314 14.3599C4.51845 12.7952 4.55375 11.1364 5.08314 9.66589L4.4714 9.4246L3.6773 9.11291C2.75968 8.74233 2.39498 9.4246 2.26557 9.75991C1.92814 11.1637 1.91205 12.6254 2.21852 14.0362V14.048C2.66556 15.1951 3.60083 14.9304 3.85377 14.8422L4.4714 14.601Z" fill="#00934B"/>
<path d="M5.08324 14.354L6.05968 13.9775L6.9126 13.6422L7.58906 13.3774C7.28475 12.4912 7.28475 11.5287 7.58906 10.6423L6.9126 10.3775L6.05968 10.054L5.08324 9.67755C4.55385 11.1482 4.51855 12.7952 5.08324 14.3599V14.354Z" fill="#22D511"/>
<path d="M7.60063 13.3774L9.01235 12.8305L10.3123 12.3246C10.3893 12.2383 10.4309 12.1261 10.4287 12.0106C10.4265 11.895 10.3808 11.7844 10.3006 11.7011L7.58887 10.6423C7.29453 11.531 7.29866 12.4915 7.60063 13.3774Z" fill="#BEF000"/>
<path d="M5.45919 15.2539L4.86509 15.5185L4.24157 15.7951C4.24157 15.7951 3.15337 16.3832 3.65335 17.5067V17.5185C4.44744 18.7538 5.49448 19.7538 6.68856 20.4891C7.00032 20.6361 7.78265 20.889 8.17676 19.9361L8.50616 19.1715L8.77085 18.5832C7.31823 17.8854 6.14918 16.7101 5.45919 15.2539Z" fill="#00934B"/>
<path d="M9.57748 16.7656L9.86571 16.1068C9.02476 15.693 8.34433 15.0125 7.93048 14.1715L7.26579 14.4657L6.42463 14.8303L5.45996 15.2539C6.14939 16.7104 7.32449 17.8813 8.7834 18.5655L9.20692 17.6009L9.57748 16.7597V16.7656Z" fill="#22D511"/>
<path d="M9.86496 16.095L10.4708 14.7009L11.0356 13.4245C11.0283 13.3095 10.9785 13.2012 10.896 13.1207C10.8134 13.0403 10.7037 12.9934 10.5885 12.9893L9.31211 13.5539L7.91797 14.1597C8.33477 15.0007 9.01698 15.6808 9.85906 16.095H9.86496Z" fill="#BEF000"/>
<path d="M18.5539 8.7776L19.1538 8.5129L19.8185 8.21879L19.7598 8.23056C20.0009 8.11291 20.8421 7.65411 20.3715 6.54825C19.5778 5.30761 18.5064 4.26852 17.2422 3.51304C16.3716 3.066 15.8304 4.08949 15.8304 4.08949L15.4951 4.85419L15.2305 5.45417C16.6925 6.13972 17.8683 7.31557 18.5539 8.7776Z" fill="#00934B"/>
<path d="M14.4356 7.24823L14.1533 7.91879C14.9954 8.33601 15.6772 9.01791 16.0945 9.85994L17.6002 9.20699L18.5532 8.7776C17.8643 7.31787 16.6894 6.143 15.2298 5.45416L14.8062 6.42472L14.4356 7.24823Z" fill="#22D511"/>
<path d="M14.1534 7.91879L13.5417 9.30695L12.9771 10.607C12.9887 10.7834 13.0947 10.9305 13.271 11.001C13.3122 11.0246 13.3711 11.0363 13.43 11.0363L14.7122 10.4717L16.1064 9.85993C15.6777 9.02207 14.9938 8.34227 14.1534 7.91879Z" fill="#BEF000"/>
<path d="M14.5886 19.5302L14.3475 18.9244C12.771 19.4891 11.1299 19.4538 9.6594 18.9244L9.41825 19.5302L9.02413 20.5419C9.02413 20.5419 8.83002 21.336 9.977 21.7772C11.3436 22.0761 12.7591 22.072 14.124 21.7655C14.324 21.7066 15.2769 21.4066 14.9357 20.4067L14.5886 19.5302Z" fill="#00934B"/>
<path d="M14.3531 18.9244L13.9766 17.9479L13.6472 17.0832L13.3826 16.4186C12.459 16.7244 11.5061 16.7126 10.6473 16.4186L10.3827 17.0832L10.0474 17.9479L9.6709 18.9244C11.1414 19.4538 12.7884 19.4891 14.359 18.9244H14.3531Z" fill="#22D511"/>
<path d="M13.3715 16.4128L12.3128 13.7068C12.2467 13.6477 12.1655 13.608 12.0782 13.5925C11.9909 13.5769 11.901 13.5859 11.8186 13.6187C11.7716 13.6422 11.7245 13.6657 11.6951 13.7011L11.1892 15.001L10.6362 16.4128C11.5068 16.7069 12.4538 16.7244 13.3715 16.4128Z" fill="#BEF000"/>
<path d="M9.40579 4.47774L9.64104 5.08948C11.2175 4.52481 12.8645 4.56009 14.335 5.07772L14.5763 4.46598L14.8175 3.84835C14.9115 3.59541 15.1703 2.64838 14.0233 2.2131L13.9999 2.20134C12.6062 1.91644 11.1674 1.93651 9.78227 2.26016C9.45877 2.36015 8.69997 2.73073 9.10583 3.70717L9.39989 4.47774H9.40579Z" fill="#00934B"/>
<path d="M9.64795 5.08949L10.0244 6.06594L10.3597 6.91886L10.6245 7.59531C11.5107 7.29056 12.4734 7.29056 13.3596 7.59531L13.6244 6.91886L13.9538 6.06594L14.336 5.08949C12.8655 4.5601 11.2185 4.52481 9.64795 5.08949Z" fill="#22D511"/>
<path d="M10.6245 7.59529L11.6951 10.3304C11.7821 10.3998 11.8912 10.4354 12.0024 10.4312C12.1135 10.4268 12.2195 10.3827 12.3009 10.307L12.8068 8.99525L13.3597 7.58353C12.4703 7.29427 11.5114 7.29841 10.6245 7.59529Z" fill="#BEF000"/>
<path d="M19.7657 15.7715L19.695 15.748L19.1538 15.5128L18.5539 15.2421C17.865 16.7019 16.6901 17.8768 15.2305 18.5655L15.8304 19.9243C16.2658 20.9832 17.1657 20.5714 17.3951 20.4302C18.5716 19.689 19.5773 18.7008 20.3362 17.5303L20.3597 17.4833C20.8538 16.3597 20.0068 15.8891 19.7598 15.7715H19.7657Z" fill="#00934B"/>
<path d="M18.5532 15.2421L17.5884 14.8186L16.7356 14.448L16.0827 14.1598C15.6697 14.9964 14.9912 15.6728 14.1533 16.0833L14.4356 16.7362L14.8062 17.5891L15.2298 18.5539C16.691 17.8728 17.8671 16.701 18.5532 15.2421Z" fill="#22D511"/>
<path d="M16.0823 14.1775L14.6942 13.5657L13.4295 13.0128C13.3764 13.0129 13.3243 13.025 13.2765 13.048C13.2194 13.0708 13.1675 13.105 13.124 13.1485C13.0805 13.192 13.0463 13.2439 13.0236 13.301C13.0002 13.3465 12.988 13.3969 12.9883 13.4481L13.5413 14.7127L14.153 16.1068C14.9894 15.6887 15.6667 15.0093 16.0823 14.1716V14.1775Z" fill="#BEF000"/>
</svg>

<svg xmlns="http://www.w3.org/2000/svg" width="24" height="24" fill="none" viewBox="0 0 24 24">
    <path fill="#00934B" d="m4.242 8.248.059.024 1.135.506a6.9 6.9 0 0 1 3.312-3.312l-.265-.594-.376-.877c-.43-.853-1.2-.564-1.471-.423a9.65 9.65 0 0 0-2.994 2.917l-.006.048c-.488 1.129.365 1.6.606 1.711"/>
    <path fill="#22D511" d="m5.448 8.766.964.43.842.364.664.3a4.25 4.25 0 0 1 1.935-1.93l-.3-.67-.37-.835-.424-.97a6.96 6.96 0 0 0-3.311 3.31"/>
    <path fill="#BEF000" d="m7.907 9.86 2.682 1.176a.47.47 0 0 0 .423-.453l-.564-1.276-.606-1.388a4.32 4.32 0 0 0-1.935 1.94"/>
    <path fill="#00934B" d="M21.771 9.942c-.447-1.117-1.364-.864-1.617-.764l-.07.029-.565.218-.606.235a6.97 6.97 0 0 1 0 4.7l.606.235.782.3c.906.382 1.288-.265 1.423-.606a9.5 9.5 0 0 0 .047-4.353z"/>
    <path fill="#22D511" d="m18.924 9.666-.982.376-1.536.6a4.27 4.27 0 0 1 0 2.735l.665.265.865.335.976.383c.535-1.47.57-3.118.012-4.694"/>
    <path fill="#BEF000" d="M16.413 10.648 15 11.195l-1.312.518a.46.46 0 0 0-.076.482.7.7 0 0 0 .076.13l1.312.506 1.412.546a4.3 4.3 0 0 0 0-2.735z"/>
    <path fill="#00934B" d="m4.471 14.601.612-.241a6.92 6.92 0 0 1 0-4.694l-.612-.241-.794-.312c-.917-.37-1.282.312-1.411.647a9.6 9.6 0 0 0-.047 4.276v.012c.447 1.147 1.382.882 1.635.794z"/>
    <path fill="#22D511" d="m5.083 14.354.977-.377.853-.335.676-.265a4.2 4.2 0 0 1 0-2.735l-.676-.264-.853-.324-.977-.376a6.88 6.88 0 0 0 0 4.682z"/>
    <path fill="#BEF000" d="m7.6 13.377 1.412-.546 1.3-.506a.46.46 0 0 0-.011-.624l-2.712-1.059c-.294.889-.29 1.85.012 2.735"/>
    <path fill="#00934B" d="m5.46 15.254-.595.264-.623.277s-1.089.588-.589 1.712v.011A9.56 9.56 0 0 0 6.69 20.49c.311.147 1.094.4 1.488-.553l.33-.764.264-.589a7.04 7.04 0 0 1-3.312-3.33"/>
    <path fill="#22D511" d="m9.577 16.766.289-.66a4.25 4.25 0 0 1-1.936-1.935l-.664.295-.841.364-.965.424a6.94 6.94 0 0 0 3.323 3.312l.424-.965.37-.841z"/>
    <path fill="#BEF000" d="m9.865 16.095.606-1.394.565-1.277a.466.466 0 0 0-.447-.435l-1.277.565-1.394.606a4.27 4.27 0 0 0 1.941 1.935z"/>
    <path fill="#00934B" d="m18.554 8.778.6-.265.665-.294-.06.012c.242-.118 1.083-.577.613-1.683a9.5 9.5 0 0 0-3.13-3.035c-.87-.447-1.412.576-1.412.576l-.335.765-.264.6a6.9 6.9 0 0 1 3.323 3.324"/>
    <path fill="#22D511" d="m14.436 7.248-.283.67a4.3 4.3 0 0 1 1.941 1.942l1.506-.653.953-.43a6.96 6.96 0 0 0-3.323-3.323l-.424.97z"/>
    <path fill="#BEF000" d="m14.153 7.919-.611 1.388-.565 1.3a.45.45 0 0 0 .294.394c.041.024.1.035.159.035l1.282-.564 1.394-.612a4.44 4.44 0 0 0-1.953-1.941"/>
    <path fill="#00934B" d="m14.589 19.53-.242-.606a6.9 6.9 0 0 1-4.688 0l-.24.606-.395 1.012s-.194.794.953 1.235a9.6 9.6 0 0 0 4.147-.012c.2-.058 1.153-.358.812-1.358z"/>
    <path fill="#22D511" d="m14.353 18.924-.376-.976-.33-.865-.264-.664a4.27 4.27 0 0 1-2.736 0l-.264.664-.336.865-.376.976a6.9 6.9 0 0 0 4.688 0z"/>
    <path fill="#BEF000" d="m13.372 16.413-1.06-2.706a.48.48 0 0 0-.493-.088.4.4 0 0 0-.124.082l-.506 1.3-.553 1.412a4.23 4.23 0 0 0 2.736 0"/>
    <path fill="#00934B" d="m9.406 4.478.235.611a7 7 0 0 1 4.694-.011l.241-.612.242-.618c.094-.253.352-1.2-.795-1.635L14 2.201a9.9 9.9 0 0 0-4.218.06c-.323.1-1.082.47-.676 1.446l.294.77z"/>
    <path fill="#22D511" d="m9.648 5.09.376.976.336.853.264.676a4.2 4.2 0 0 1 2.736 0l.264-.676.33-.853.382-.977a6.9 6.9 0 0 0-4.688 0"/>
    <path fill="#BEF000" d="m10.625 7.595 1.07 2.735a.465.465 0 0 0 .606-.023l.506-1.312.553-1.411a4.37 4.37 0 0 0-2.735.011"/>
    <path fill="#00934B" d="m19.766 15.772-.071-.024-.541-.235-.6-.27a6.96 6.96 0 0 1-3.323 3.323l.6 1.358c.435 1.06 1.335.647 1.564.506a9.6 9.6 0 0 0 2.941-2.9l.024-.047c.494-1.123-.353-1.594-.6-1.712z"/>
    <path fill="#22D511" d="m18.553 15.242-.965-.423-.852-.371-.653-.288a4.22 4.22 0 0 1-1.93 1.923l.283.653.37.853.424.965a6.9 6.9 0 0 0 3.323-3.312"/>
    <path fill="#BEF000" d="m16.082 14.178-1.388-.612-1.264-.553a.35.35 0 0 0-.153.035.45.45 0 0 0-.253.253.3.3 0 0 0-.036.147l.553 1.265.612 1.394a4.3 4.3 0 0 0 1.93-1.935z"/>
</svg>
